X:1140
T:Standish Quick March
A:Wyresdale, Lancashire
B:E and J Winder, 1835-41
L:1/8
M:6/8
O:England
Z:Richard Robinson 
%%TUNEURL: http://www.leeds.ac.uk/music/Info/RRTuneBk/gettune/00001156.html
%%ID:00001156
K:C
gab | \
c'2g g^fg | e2c cBc | d2d def | (f3 e2)g | c'2g g^fg | e2c cBc | dag fed | c2c c2 ::
e | \
d2G GAB | c2c cBc | d2d def | (f3 e2)g | c'2g g^fg | e2c cBc | dag fed | c2c c2 ::
%%newpage
%page 95
